src/icons/scalable/actions/verified-checkmark-symbolic.svg

<?xml version="1.0" encoding="UTF-8"?>
<svg xmlns="http://www.w3.org/2000/svg" height="16px" viewBox="0 0 16 16" width="16px"><path d="m 5.210938 1.269531 c 0.703124 -0.808593 1.71875 -1.269531 2.789062 -1.269531 c 1.113281 0 2.109375 0.492188 2.785156 1.269531 c 1.070313 -0.074219 2.117188 0.316407 2.871094 1.074219 c 0.757812 0.753906 1.148438 1.800781 1.074219 2.867188 c 0.808593 0.703124 1.269531 1.71875 1.269531 2.789062 s -0.464844 2.085938 -1.269531 2.789062 c 0.074219 1.066407 -0.316407 2.113282 -1.074219 2.867188 c -0.753906 0.757812 -1.800781 1.148438 -2.871094 1.074219 c -0.699218 0.808593 -1.714844 1.269531 -2.785156 1.269531 s -2.085938 -0.460938 -2.789062 -1.269531 c -1.066407 0.074219 -2.113282 -0.316407 -2.867188 -1.074219 c -0.757812 -0.753906 -1.148438 -1.800781 -1.074219 -2.867188 c -0.808593 -0.703124 -1.269531 -1.71875 -1.269531 -2.789062 c 0 -1.113281 0.492188 -2.109375 1.269531 -2.789062 c -0.074219 -1.066407 0.316407 -2.113282 1.074219 -2.867188 c 0.753906 -0.757812 1.800781 -1.148438 2.867188 -1.074219 z m 5.75 5.242188 c 0.136718 -0.179688 0.160156 -0.414063 0.070312 -0.621094 c -0.089844 -0.203125 -0.285156 -0.339844 -0.507812 -0.359375 c -0.222657 -0.023438 -0.4375 0.082031 -0.5625 0.265625 l -2.65625 3.714844 l -1.332032 -1.332031 c -0.242187 -0.226563 -0.621094 -0.21875 -0.855468 0.015624 c -0.234376 0.234376 -0.238282 0.613282 -0.015626 0.855469 l 1.847657 1.84375 c 0.128906 0.128907 0.304687 0.195313 0.484375 0.179688 c 0.179687 -0.015625 0.347656 -0.109375 0.453125 -0.253907 z m 0 0" fill="#222222" fill-rule="evenodd"/></svg>

<svg xmlns="http://www.w3.org/2000/svg" width="16" height="16" viewBox="0 0 16 16"><path fill="#222" fill-rule="evenodd" d="M5.21 1.27a3.69 3.69 0 0 1 5.575 0 3.7 3.7 0 0 1 2.871 1.074A3.68 3.68 0 0 1 14.73 5.21C15.54 5.914 16 6.93 16 8s-.465 2.086-1.27 2.79a3.68 3.68 0 0 1-1.074 2.866 3.7 3.7 0 0 1-2.87 1.074C10.085 15.54 9.07 16 8 16s-2.086-.46-2.79-1.27a3.68 3.68 0 0 1-2.866-1.074A3.68 3.68 0 0 1 1.27 10.79 3.7 3.7 0 0 1 0 8c0-1.113.492-2.11 1.27-2.79a3.68 3.68 0 0 1 1.074-2.866A3.68 3.68 0 0 1 5.21 1.27m5.75 5.242a.613.613 0 0 0-.437-.98.61.61 0 0 0-.562.265L7.305 9.512 5.973 8.18a.616.616 0 0 0-.871.87l1.847 1.845a.61.61 0 0 0 .485.18.63.63 0 0 0 .453-.255zm0 0"/></svg>
